X:1
T:I'm Glad There Is You
C:Jimmy Dorsey & Paul Madeira
L:1/4
M:C
I:linebreak $
K:F
"F" E E E2 | z E A/A/ E/E/ |"Fm" _E2 _E2 | z _E _A/_A/ _E/_E/ |$"Gm" D2"GmM" D2 |
"Gm" z D"Go" (3E F G Ox/||"Am" c2"Ab7" z2 |"Gm" z4 "Gb7" x4|$"F" c c"Gm" c2 |
"Am" z c"Ao" e/e/ d/d/ |"Gm" B2"GmM" B2 |"Gm" z B"C7" d/d/ c/c/ |$"Eb7b5" A2 A2 |
"D7" z A (3c B A |"Gm" G4 "C7" x4|"Cm" z A"F7" B c |$"Bb" c F G A |"Bbm" c B"Eb7" F G |"F" A2 A2 |
"Em" z E"Eb7" F G |$"Dm" A E"DmM" F G |"Dm" A G"Do" E F |"Gm" D4 |"Gb7" "_D.C. al Coda" E4 ||$
Ox/"Aø" c4 |"Ab7" z2 c ^c |"Gm" d2"GmM" f2 |"Gm" z F"Gb7" (3A A A |"F6" F4 | z4 |]

